X:16407
T:Dance
C:anon., arr. Frank Nordberg
O:England
N:The opening phrase resembles John Johnon's "A Dump", but that's probably just a coincidence.
R:Almain
Z:Transcribed by Frank Nordberg - http://www.musicaviva.com
F:http://abc.musicaviva.com/tunes/england/anon-dance02/anon-dance02-gtr2.abc
V:1 Program 1 24 up %Classical guitar
V:2 Program 1 24 merge down %Classical guitar
M:C
L:1/8
Q:1/2=115
K:A -8va % C with capo on third fret
V:1
"^Capo III"[c3a3]=g f2e2|d2c2 B2e2|cde2 def2|[B2e2][F2^d2] [G4B4e4]|
V:2
A,8|D4E4|A,4D4|E2B,2E,4|
%
V:1
[c2a2]f=g agfe|fedc BcdB|cdec defd|[B2e2][F2^d2] [G4B4e4]|
V:2
A,8|D4E4|A,4D4|E2B,2E,4|
%
V:1
c2Bc d2cd|e2de f2ef|g2fg a2c2|[A2B2-][B2G2] [E4A4]|
V:2
A,4B,4|C4D4|E4A,4|E,4A,4|
%
V:1
cABc dBcd|ecde fdef|gefg a2c2|[A2B2-][B2G2] [E4A4]|]
V:2
A,4B,4|C4D4|E4A,4|E,4A,4|]
W:
W:
W:  From Musica Viva - http://www.musicaviva.com
W:  the Internet center for free sheet music downloads.
